usr/share/icons/biglinux-icons-material-dark/symbolic/actions/selection-move-to-layer-above.svg

<svg xmlns="http://www.w3.org/2000/svg" viewBox="0 0 16 16">
  <defs id="defs3051">
    <style type="text/css" id="current-color-scheme">
      .ColorScheme-Text {
        color:#dedede;
      }
      .ColorScheme-Highlight {
        color:#3daee9;
      }
      </style>
  </defs>
  <path 
        style="fill:currentColor;fill-opacity:1;stroke:none"
        d="M 5 2 L 2 5 L 11 5 L 14 2 L 5 2 z M 5 11 L 2 14 L 11 14 L 13 12 L 11.583984 12 L 10.585938 13 L 4.4160156 13 L 5.4140625 12 L 10 12 L 10 11 L 5 11 z "
        class="ColorScheme-Text"
        />
  <path
        style="fill:currentColor;fill-opacity:1;stroke:none"
        d="M 11,11 11,6.96875 9.656,8.4065 8.99975,7.71875 11.312,5.219 11.4995,5 11.687,5.219 13.99925,7.71875 13.343,8.4065 11.999,6.96875 c 0,0.02325 0,2.90775 0,4.03125 z"
        class="ColorScheme-Highlight"
      />
</svg>

<svg xmlns="http://www.w3.org/2000/svg" viewBox="0 0 16 16">
<defs id="defs3051">
<style id="current-color-scheme" type="text/css">
.ColorScheme-Contrast{color:#dedede}.ColorScheme-Highlight{color:#3daee9}
</style>
</defs>
<path d="M5 2 2 5h9l3-3zm0 9-3 3h9l2-2h-1.416l-.998 1h-6.17l.998-1H10v-1z" class="ColorScheme-Contrast" style="fill:currentColor;fill-opacity:1;stroke:none"/>
<path d="M11 11V6.969L9.656 8.406 9 7.72l2.312-2.5L11.5 5l.187.219 2.312 2.5-.656.687-1.344-1.437V11z" class="ColorScheme-Highlight" style="fill:currentColor;fill-opacity:1;stroke:none"/>
</svg>
